icons/modern/pirate-flag.svg

<svg width="32" height="32" viewBox="0 0 32 32" fill="none" xmlns="http://www.w3.org/2000/svg">
<rect x="2.25222" y="6.04297" width="27.875" height="19.9141" rx="0.6" fill="url(#paint0_linear_4_7868)"/>
<rect x="2.25222" y="6.04297" width="27.875" height="19.9141" rx="0.6" fill="url(#paint1_linear_4_7868)" fill-opacity="0.25"/>
<rect x="2.25222" y="6.04297" width="27.875" height="19.9141" rx="0.6" fill="url(#paint2_linear_4_7868)"/>
<path d="M11.9593 10.7501C12.1403 10.5691 12.2522 10.3191 12.2522 10.043C12.2522 9.49068 11.8045 9.04297 11.2522 9.04297C10.6999 9.04297 10.2522 9.49068 10.2522 10.043C9.69994 10.043 9.25222 10.4907 9.25222 11.043C9.25222 11.5953 9.69994 12.043 10.2522 12.043C10.5284 12.043 10.7784 11.931 10.9593 11.7501L12.0754 12.8662C12.1731 12.9638 12.3314 12.9638 12.429 12.8662L13.0754 12.2197C13.1731 12.1221 13.1731 11.9638 13.0754 11.8662L11.9593 10.7501ZM11.9593 21.2323C12.1403 21.4133 12.2522 21.6633 12.2522 21.9394C12.2522 22.4917 11.8045 22.9394 11.2522 22.9394C10.6999 22.9394 10.2522 22.4917 10.2522 21.9394C9.69994 21.9394 9.25222 21.4917 9.25222 20.9394C9.25222 20.3871 9.69994 19.9394 10.2522 19.9394C10.5284 19.9394 10.7784 20.0514 10.9593 20.2323L12.0754 19.1162C12.1731 19.0186 12.3314 19.0186 12.429 19.1162L13.0754 19.7626C13.1731 19.8603 13.1731 20.0186 13.0754 20.1162L11.9593 21.2323ZM20.1487 10.043C20.1487 10.3191 20.2606 10.5691 20.4416 10.7501L19.3254 11.8662C19.2278 11.9638 19.2278 12.1221 19.3254 12.2197L19.9719 12.8662C20.0695 12.9638 20.2278 12.9638 20.3254 12.8662L21.4416 11.7501C21.6225 11.931 21.8725 12.043 22.1487 12.043C22.701 12.043 23.1487 11.5953 23.1487 11.043C23.1487 10.4907 22.701 10.043 22.1487 10.043C22.1487 9.49068 21.701 9.04297 21.1487 9.04297C20.5964 9.04297 20.1487 9.49068 20.1487 10.043ZM20.4416 21.2323C20.2606 21.4133 20.1487 21.6633 20.1487 21.9394C20.1487 22.4917 20.5964 22.9394 21.1487 22.9394C21.701 22.9394 22.1487 22.4917 22.1487 21.9394C22.701 21.9394 23.1487 21.4917 23.1487 20.9394C23.1487 20.3871 22.701 19.9394 22.1487 19.9394C21.8725 19.9394 21.6225 20.0514 21.4416 20.2323L20.3254 19.1162C20.2278 19.0186 20.0695 19.0186 19.9719 19.1162L19.3254 19.7626C19.2278 19.8603 19.2278 20.0186 19.3254 20.1162L20.4416 21.2323ZM20.0022 15.043C20.0022 13.11 18.3233 11.543 16.2522 11.543C14.1812 11.543 12.5022 13.11 12.5022 15.043C12.5022 15.4847 12.5899 15.9073 12.7499 16.2965L12.4764 16.7066C11.8891 17.5877 12.3748 18.7835 13.4102 19.0054L13.7522 19.0787V19.793C13.7522 20.2072 14.088 20.543 14.5022 20.543C14.9164 20.543 15.2522 20.2072 15.2522 19.793V19.293H15.5022V19.793C15.5022 20.2072 15.838 20.543 16.2522 20.543C16.6664 20.543 17.0022 20.2072 17.0022 19.793V19.293H17.2522V19.793C17.2522 20.2072 17.588 20.543 18.0022 20.543C18.4164 20.543 18.7522 20.2072 18.7522 19.793V19.0787L19.0942 19.0054C20.1296 18.7835 20.6154 17.5877 20.028 16.7066L19.7546 16.2965C19.9145 15.9073 20.0022 15.4847 20.0022 15.043ZM15.1826 16.6254C14.7015 17.1065 13.9984 17.1833 13.6121 16.7969C13.2896 16.4744 13.3421 15.4961 13.6858 15.1523C14.0296 14.8086 15.0823 14.7832 15.3541 15.055C15.7404 15.4413 15.6636 16.1444 15.1826 16.6254ZM18.8814 16.7969C18.4951 17.1833 17.792 17.1065 17.3109 16.6254C16.8299 16.1444 16.7531 15.4413 17.1394 15.055C17.4112 14.7832 18.4639 14.8086 18.8077 15.1523C19.1514 15.4961 19.2039 16.4744 18.8814 16.7969ZM16.0352 16.9228C16.1311 16.7549 16.3733 16.7549 16.4693 16.9228L17.0385 17.9189C17.1337 18.0856 17.0134 18.293 16.8214 18.293H15.683C15.4911 18.293 15.3707 18.0856 15.466 17.9189L16.0352 16.9228Z" fill="url(#paint3_radial_4_7868)"/>
<defs>
<linearGradient id="paint0_linear_4_7868" x1="2.875" y1="6.625" x2="30.1272" y2="26.25" gradientUnits="userSpaceOnUse">
<stop stop-color="#221F25"/>
<stop offset="1" stop-color="#402F4D"/>
</linearGradient>
<linearGradient id="paint1_linear_4_7868" x1="30.2969" y1="19.332" x2="29.5" y2="19.332" gradientUnits="userSpaceOnUse">
<stop stop-color="#FBF2FF"/>
<stop offset="1" stop-color="#FBF2FF" stop-opacity="0"/>
</linearGradient>
<linearGradient id="paint2_linear_4_7868" x1="8.75222" y1="26.2812" x2="8.75222" y2="25.4062" gradientUnits="userSpaceOnUse">
<stop offset="0.0149314" stop-color="#693CA6"/>
<stop offset="1" stop-color="#693CA6" stop-opacity="0"/>
</linearGradient>
<radialGradient id="paint3_radial_4_7868" cx="0" cy="0" r="1" gradientUnits="userSpaceOnUse" gradientTransform="translate(16.2004 20.0625) rotate(-90) scale(10.25 10.25)">
<stop stop-color="#F2E3FC"/>
<stop offset="1" stop-color="#F4E8FD"/>
</radialGradient>
</defs>
</svg>

<svg width="32" height="32" fill="none" xmlns="http://www.w3.org/2000/svg"><rect x="2.252" y="6.043" width="27.875" height="19.914" rx=".6" fill="url(#a)"/><rect x="2.252" y="6.043" width="27.875" height="19.914" rx=".6" fill="url(#b)" fill-opacity=".25"/><rect x="2.252" y="6.043" width="27.875" height="19.914" rx=".6" fill="url(#c)"/><path d="M11.96 10.75a1 1 0 1 0-1.707-.707 1 1 0 1 0 .706 1.707l1.116 1.116a.25.25 0 0 0 .354 0l.646-.646a.25.25 0 0 0 0-.354L11.96 10.75Zm0 10.482a1 1 0 1 1-1.707.707 1 1 0 1 1 .706-1.707l1.116-1.116a.25.25 0 0 1 .354 0l.646.647a.25.25 0 0 1 0 .353l-1.116 1.116Zm8.189-11.189c0 .276.112.526.293.707l-1.117 1.116a.25.25 0 0 0 0 .354l.647.646a.25.25 0 0 0 .353 0l1.117-1.116a1 1 0 1 0 .707-1.707 1 1 0 1 0-2 0Zm.293 11.19a1 1 0 1 0 1.707.707 1 1 0 1 0-.707-1.708l-1.117-1.116a.25.25 0 0 0-.353 0l-.647.647a.25.25 0 0 0 0 .353l1.117 1.116Zm-.44-6.19c0-1.933-1.679-3.5-3.75-3.5-2.07 0-3.75 1.567-3.75 3.5 0 .442.088.864.248 1.254l-.274.41a1.5 1.5 0 0 0 .934 2.298l.342.074v.714a.75.75 0 0 0 1.5 0v-.5h.25v.5a.75.75 0 0 0 1.5 0v-.5h.25v.5a.75.75 0 0 0 1.5 0v-.714l.342-.074a1.5 1.5 0 0 0 .934-2.298l-.273-.41c.16-.39.247-.812.247-1.254Zm-4.82 1.582c-.48.482-1.184.558-1.57.172-.322-.323-.27-1.3.074-1.645.344-.343 1.396-.369 1.668-.097.386.386.31 1.09-.171 1.57Zm3.7.172c-.387.386-1.09.31-1.571-.172-.481-.48-.558-1.184-.172-1.57.272-.272 1.325-.246 1.669.097.343.344.396 1.322.073 1.645Zm-2.847.126a.25.25 0 0 1 .434 0l.57.996a.25.25 0 0 1-.218.374h-1.138a.25.25 0 0 1-.217-.374l.57-.996Z" fill="url(#d)"/><defs><linearGradient id="a" x1="2.875" y1="6.625" x2="30.127" y2="26.25" gradientUnits="userSpaceOnUse"><stop stop-color="#221F25"/><stop offset="1" stop-color="#402F4D"/></linearGradient><linearGradient id="b" x1="30.297" y1="19.332" x2="29.5" y2="19.332" gradientUnits="userSpaceOnUse"><stop stop-color="#FBF2FF"/><stop offset="1" stop-color="#FBF2FF" stop-opacity="0"/></linearGradient><linearGradient id="c" x1="8.752" y1="26.281" x2="8.752" y2="25.406" gradientUnits="userSpaceOnUse"><stop offset=".015" stop-color="#693CA6"/><stop offset="1" stop-color="#693CA6" stop-opacity="0"/></linearGradient><radialGradient id="d" cx="0" cy="0" r="1" gradientUnits="userSpaceOnUse" gradientTransform="matrix(0 -10.25 10.25 0 16.2 20.063)"><stop stop-color="#F2E3FC"/><stop offset="1" stop-color="#F4E8FD"/></radialGradient></defs></svg>
